assets/Croissant/Flat/croissant_flat.svg

<svg width="32" height="32" viewBox="0 0 32 32" fill="none" xmlns="http://www.w3.org/2000/svg">
<path d="M6.89191 6.32179L6.32191 6.89179C-0.338094 15.7418 5.19191 24.8418 5.19191 24.8418L13.4619 23.9818C12.5819 22.1918 13.4619 18.4918 15.9819 15.9718C18.5019 13.4518 22.2019 12.5618 23.9919 13.4518L24.8519 5.18179C24.8419 5.18179 15.7419 -0.33821 6.89191 6.32179Z" fill="#FEEFC2"/>
<path d="M25.8719 15.9318L23.6619 13.7218C23.5219 13.5818 23.4519 13.3718 23.4619 13.1718L24.2119 4.88181C24.2619 4.37181 24.8819 4.15181 25.2419 4.51181L26.9619 6.23181C28.9919 8.26181 30.0819 11.0418 29.9819 13.9118L29.9719 14.3218C29.9519 14.9218 29.7019 15.5018 29.2719 15.9318C28.3319 16.8718 26.8119 16.8718 25.8719 15.9318Z" fill="#E19747"/>
<path d="M15.9319 25.8718L13.7219 23.6618C13.5819 23.5218 13.3719 23.4518 13.1719 23.4618L4.88193 24.2118C4.37193 24.2618 4.15193 24.8818 4.51193 25.2418L6.23193 26.9618C8.26193 28.9918 11.0419 30.0818 13.9119 29.9818L14.3219 29.9718C14.9219 29.9518 15.5019 29.7018 15.9319 29.2718C16.8719 28.3318 16.8719 26.8118 15.9319 25.8718Z" fill="#E19747"/>
<path d="M22.7418 3.19188L21.8218 2.84188C19.5118 1.97188 17.0118 1.77188 14.5918 2.26188L13.9318 2.40188C13.3218 2.52188 13.0118 3.21188 13.3118 3.76188L18.9718 13.7119C19.0918 13.9319 19.3018 14.0819 19.5418 14.1519C20.3718 14.3619 21.2518 14.3219 22.0618 14.0119L22.1818 13.9619C22.5218 13.8319 22.7518 13.5219 22.7718 13.1619L23.3218 4.12188C23.3518 3.70188 23.1118 3.33188 22.7418 3.19188Z" fill="#F3AD61"/>
<path d="M9.83184 2.82184C6.62184 4.07184 4.07184 6.62184 2.82184 9.83184C2.48184 10.7118 2.82184 11.7018 3.62184 12.1918L14.0418 18.5418C14.6618 18.9218 15.4418 18.9218 16.0618 18.5418C17.0718 17.9218 17.9318 17.0718 18.5418 16.0618C18.9218 15.4418 18.9218 14.6618 18.5418 14.0418L12.1918 3.62184C11.7018 2.82184 10.7118 2.48184 9.83184 2.82184Z" fill="#F3AD61"/>
<path d="M2.84188 21.8219L3.19188 22.7419C3.33188 23.1119 3.70188 23.3519 4.10188 23.3319L13.1519 22.7719C13.5119 22.7519 13.8219 22.5219 13.9519 22.1819L14.0019 22.0619C14.3119 21.2519 14.3519 20.3719 14.1419 19.5419C14.0719 19.3019 13.9219 19.0919 13.7019 18.9719L3.75188 13.3119C3.20188 13.0119 2.51188 13.3219 2.39188 13.9319L2.26188 14.5919C1.77188 17.0119 1.97188 19.5119 2.84188 21.8219Z" fill="#F3AD61"/>
</svg>

<svg xmlns="http://www.w3.org/2000/svg" width="32" height="32" fill="none"><path fill="#FEEFC2" d="m6.892 6.322-.57.57c-6.66 8.85-1.13 17.95-1.13 17.95l8.27-.86c-.88-1.79 0-5.49 2.52-8.01 2.52-2.52 6.22-3.41 8.01-2.52l.86-8.27c-.01 0-9.11-5.52-17.96 1.14Z"/><path fill="#E19747" d="m25.872 15.932-2.21-2.21a.737.737 0 0 1-.2-.55l.75-8.29c.05-.51.67-.73 1.03-.37l1.72 1.72c2.03 2.03 3.12 4.81 3.02 7.68l-.01.41a2.402 2.402 0 0 1-4.1 1.61ZM15.932 25.872l-2.21-2.21a.737.737 0 0 0-.55-.2l-8.29.75c-.51.05-.73.67-.37 1.03l1.72 1.72c2.03 2.03 4.81 3.12 7.68 3.02l.41-.01a2.402 2.402 0 0 0 1.61-4.1Z"/><path fill="#F3AD61" d="m22.742 3.192-.92-.35c-2.31-.87-4.81-1.07-7.23-.58l-.66.14c-.61.12-.92.81-.62 1.36l5.66 9.95c.12.22.33.37.57.44.83.21 1.71.17 2.52-.14l.12-.05a.91.91 0 0 0 .59-.8l.55-9.04a.912.912 0 0 0-.58-.93ZM9.832 2.822c-3.21 1.25-5.76 3.8-7.01 7.01-.34.88 0 1.87.8 2.36l10.42 6.35c.62.38 1.4.38 2.02 0a7.445 7.445 0 0 0 2.48-2.48c.38-.62.38-1.4 0-2.02l-6.35-10.42c-.49-.8-1.48-1.14-2.36-.8ZM2.842 21.822l.35.92c.14.37.51.61.91.59l9.05-.56a.91.91 0 0 0 .8-.59l.05-.12c.31-.81.35-1.69.14-2.52a.936.936 0 0 0-.44-.57l-9.95-5.66c-.55-.3-1.24.01-1.36.62l-.13.66c-.49 2.42-.29 4.92.58 7.23Z"/></svg>
